icons/bag-plus.svg

<svg xmlns="http://www.w3.org/2000/svg" width="96" height="96"><path d="M63.953 24H70c4.3 0 8 3.3 8.4 7.6l5.2 56.1v.7c0 2-.8 4-2.2 5.4C80 95.2 78 96 76 96H20c-2 0-4-.8-5.4-2.2-1.4-1.4-2.2-3.4-2.2-5.4v-.7l5.2-56.1C18 27.3 21.7 24 26 24h6.047L32 22.1c-.1-5.3 1.3-10.4 4.1-14.9 2.5-4.3 7-7 11.9-7.2 4.9.2 9.4 2.9 11.9 7.2 2.8 4.5 4.2 9.6 4.1 14.9l-.047 1.9zm-8.006 0H40.052L40 21.9c-.1-3.7.9-7.4 2.9-10.6C44 9.5 45.9 8.2 48 8c2.1.2 4 1.5 5.1 3.3 2 3.2 3 6.9 2.9 10.6l-.053 2.1zM20.4 88H76v.6h-.4V88l-5.2-55.6c0-.2-.2-.4-.4-.4H26c-.2 0-.4.2-.4.4L20.4 88v.6H20V88h.4zM52 60v-4c0-1.1-.4-2.1-1.2-2.8-.7-.8-1.7-1.2-2.8-1.2-1.1 0-2.1.4-2.8 1.2-.8.7-1.2 1.7-1.2 2.8v4h-4c-1.1 0-2.1.4-2.8 1.2-.8.7-1.2 1.7-1.2 2.8 0 1.1.4 2.1 1.2 2.8.7.8 1.7 1.2 2.8 1.2h4v4c0 1.1.4 2.1 1.2 2.8.7.8 1.7 1.2 2.8 1.2 1.1 0 2.1-.4 2.8-1.2.8-.7 1.2-1.7 1.2-2.8v-4h4c1.1 0 2.1-.4 2.8-1.2.8-.7 1.2-1.7 1.2-2.8 0-1.1-.4-2.1-1.2-2.8-.7-.8-1.7-1.2-2.8-1.2h-4z" fill-rule="evenodd" fill="#454545"/></svg>

<?xml version="1.0" standalone="no"?><!-- Generator: Gravit.io --><svg xmlns="http://www.w3.org/2000/svg" xmlns:xlink="http://www.w3.org/1999/xlink" width="96" height="96"><path d=" M 63.9525 24 L 70 24 C 74.3 24 78 27.3 78.4 31.6 L 83.6 87.7 L 83.6 88.2 C 83.6 88.3 83.6 88.3 83.6 88.4 C 83.6 90.4 82.8 92.4 81.4 93.8 C 80 95.2 78 96 76 96 L 20 96 C 18 96 16 95.2 14.6 93.8 C 13.2 92.4 12.4 90.4 12.4 88.4 C 12.4 88.3 12.4 88.3 12.4 88.2 L 12.4 87.7 L 17.6 31.6 L 17.6 31.6 C 18 27.3 21.7 24 26 24 L 32.0475 24 L 32 22.1 C 31.9 16.8 33.3 11.7 36.1 7.2 C 38.6 2.9 43.1 0.20000000000000018 48 0 C 52.9 0.20000000000000018 57.4 2.9 59.9 7.2 C 62.7 11.7 64.1 16.8 64 22.1 L 63.9525 24 Z  M 55.9475 24 L 40.0525 24 L 40 21.9 C 39.9 18.2 40.9 14.5 42.9 11.3 C 44 9.5 45.9 8.2 48 8 C 50.1 8.2 52 9.5 53.1 11.3 C 55.1 14.5 56.1 18.2 56 21.9 L 55.9475 24 Z  M 20.4 88 L 75.6 88 L 76 88 L 76 88.6 L 75.6 88.6 L 75.6 88.3 L 75.6 88 L 70.4 32.4 C 70.4 32.2 70.2 32 70 32 L 26 32 C 25.8 32 25.6 32.2 25.6 32.4 L 20.4 88 L 20.4 88.3 L 20.4 88.6 L 20 88.6 L 20 88 L 20.4 88 L 20.4 88 Z  M 52 60 L 52 56 C 52 54.9 51.6 53.9 50.8 53.2 C 50.1 52.4 49.1 52 48 52 C 46.9 52 45.9 52.4 45.2 53.2 C 44.4 53.9 44 54.9 44 56 L 44 60 L 40 60 C 38.9 60 37.9 60.4 37.2 61.2 C 36.4 61.9 36 62.9 36 64 C 36 65.1 36.4 66.1 37.2 66.8 C 37.9 67.6 38.9 68 40 68 L 44 68 L 44 72 C 44 73.1 44.4 74.1 45.2 74.8 C 45.9 75.6 46.9 76 48 76 C 49.1 76 50.1 75.6 50.8 74.8 C 51.6 74.1 52 73.1 52 72 L 52 68 L 56 68 C 57.1 68 58.1 67.6 58.8 66.8 C 59.6 66.1 60 65.1 60 64 C 60 62.9 59.6 61.9 58.8 61.2 C 58.1 60.4 57.1 60 56 60 L 52 60 Z " fill-rule="evenodd" fill="#454545" stroke="none"/><mask id="_mask_gazEXz1qvR5mkLq1QiBy021KoY4zckGM"><path d=" M 63.9525 24 L 70 24 C 74.3 24 78 27.3 78.4 31.6 L 83.6 87.7 L 83.6 88.2 C 83.6 88.3 83.6 88.3 83.6 88.4 C 83.6 90.4 82.8 92.4 81.4 93.8 C 80 95.2 78 96 76 96 L 20 96 C 18 96 16 95.2 14.6 93.8 C 13.2 92.4 12.4 90.4 12.4 88.4 C 12.4 88.3 12.4 88.3 12.4 88.2 L 12.4 87.7 L 17.6 31.6 L 17.6 31.6 C 18 27.3 21.7 24 26 24 L 32.0475 24 L 32 22.1 C 31.9 16.8 33.3 11.7 36.1 7.2 C 38.6 2.9 43.1 0.20000000000000018 48 0 C 52.9 0.20000000000000018 57.4 2.9 59.9 7.2 C 62.7 11.7 64.1 16.8 64 22.1 L 63.9525 24 Z  M 55.9475 24 L 40.0525 24 L 40 21.9 C 39.9 18.2 40.9 14.5 42.9 11.3 C 44 9.5 45.9 8.2 48 8 C 50.1 8.2 52 9.5 53.1 11.3 C 55.1 14.5 56.1 18.2 56 21.9 L 55.9475 24 Z  M 20.4 88 L 75.6 88 L 76 88 L 76 88.6 L 75.6 88.6 L 75.6 88.3 L 75.6 88 L 70.4 32.4 C 70.4 32.2 70.2 32 70 32 L 26 32 C 25.8 32 25.6 32.2 25.6 32.4 L 20.4 88 L 20.4 88.3 L 20.4 88.6 L 20 88.6 L 20 88 L 20.4 88 L 20.4 88 Z  M 52 60 L 52 56 C 52 54.9 51.6 53.9 50.8 53.2 C 50.1 52.4 49.1 52 48 52 C 46.9 52 45.9 52.4 45.2 53.2 C 44.4 53.9 44 54.9 44 56 L 44 60 L 40 60 C 38.9 60 37.9 60.4 37.2 61.2 C 36.4 61.9 36 62.9 36 64 C 36 65.1 36.4 66.1 37.2 66.8 C 37.9 67.6 38.9 68 40 68 L 44 68 L 44 72 C 44 73.1 44.4 74.1 45.2 74.8 C 45.9 75.6 46.9 76 48 76 C 49.1 76 50.1 75.6 50.8 74.8 C 51.6 74.1 52 73.1 52 72 L 52 68 L 56 68 C 57.1 68 58.1 67.6 58.8 66.8 C 59.6 66.1 60 65.1 60 64 C 60 62.9 59.6 61.9 58.8 61.2 C 58.1 60.4 57.1 60 56 60 L 52 60 Z " fill-rule="evenodd" fill="white" stroke="none"/></mask><path d=" M 63.9525 24 L 70 24 C 74.3 24 78 27.3 78.4 31.6 L 83.6 87.7 L 83.6 88.2 C 83.6 88.3 83.6 88.3 83.6 88.4 C 83.6 90.4 82.8 92.4 81.4 93.8 C 80 95.2 78 96 76 96 L 20 96 C 18 96 16 95.2 14.6 93.8 C 13.2 92.4 12.4 90.4 12.4 88.4 C 12.4 88.3 12.4 88.3 12.4 88.2 L 12.4 87.7 L 17.6 31.6 L 17.6 31.6 C 18 27.3 21.7 24 26 24 L 32.0475 24 L 32 22.1 C 31.9 16.8 33.3 11.7 36.1 7.2 C 38.6 2.9 43.1 0.20000000000000018 48 0 C 52.9 0.20000000000000018 57.4 2.9 59.9 7.2 C 62.7 11.7 64.1 16.8 64 22.1 L 63.9525 24 Z  M 55.9475 24 L 40.0525 24 L 40 21.9 C 39.9 18.2 40.9 14.5 42.9 11.3 C 44 9.5 45.9 8.2 48 8 C 50.1 8.2 52 9.5 53.1 11.3 C 55.1 14.5 56.1 18.2 56 21.9 L 55.9475 24 Z  M 20.4 88 L 75.6 88 L 76 88 L 76 88.6 L 75.6 88.6 L 75.6 88.3 L 75.6 88 L 70.4 32.4 C 70.4 32.2 70.2 32 70 32 L 26 32 C 25.8 32 25.6 32.2 25.6 32.4 L 20.4 88 L 20.4 88.3 L 20.4 88.6 L 20 88.6 L 20 88 L 20.4 88 L 20.4 88 Z  M 52 60 L 52 56 C 52 54.9 51.6 53.9 50.8 53.2 C 50.1 52.4 49.1 52 48 52 C 46.9 52 45.9 52.4 45.2 53.2 C 44.4 53.9 44 54.9 44 56 L 44 60 L 40 60 C 38.9 60 37.9 60.4 37.2 61.2 C 36.4 61.9 36 62.9 36 64 C 36 65.1 36.4 66.1 37.2 66.8 C 37.9 67.6 38.9 68 40 68 L 44 68 L 44 72 C 44 73.1 44.4 74.1 45.2 74.8 C 45.9 75.6 46.9 76 48 76 C 49.1 76 50.1 75.6 50.8 74.8 C 51.6 74.1 52 73.1 52 72 L 52 68 L 56 68 C 57.1 68 58.1 67.6 58.8 66.8 C 59.6 66.1 60 65.1 60 64 C 60 62.9 59.6 61.9 58.8 61.2 C 58.1 60.4 57.1 60 56 60 L 52 60 Z " fill-rule="evenodd" fill="none" stroke="none" stroke-width="16" mask="url(#_mask_gazEXz1qvR5mkLq1QiBy021KoY4zckGM)"/></svg>
